X:274
T:Little Biddy Acorn in a Big Oak Tree 
C:Kenny Baker
N:Transcribed by Vance Henry
R:bluegrass
L:1/8
Q:1/4=225
M:4/4
K:D
"D"=f^f3 a3f | "G"gd Bd ga be | "D"fg ab ag fe | "A"fg ec AF (3EFE | "D"DF Ad fa fa | 
"G"gd Bd ga bg | "A"ag (3fgf ec Ac | df e"D"c d4 | =f^f3 a3f | "G"g2 [B2D2G,2] g2 b2 | 
"D"fg ab ag fe | "A"fg ec AF (3EFE | "D"DF Ad fa fa | "G"gd Bd ga bg | "A"ag (3fgf ec Ac | 
df ec "D"d4 | DF Ac d2 de | fe df ed Bc | d2 (3BdB AF DF | "A"GE CA, B,C A,C | 
"D"DF Ac df ed | fe df ed ef | "G"gf ed cA Bc | "A"dB AG "D"F2 D2 | DF (3ABc d2 de | 
fe df ed Bc | d2 (3BdB AF DF | "A"GE CA, B,C A,C | "D"DF Ac df ed | fe df ed ef | 
"G"gb ag fa ec | "A"Ac eg "D"f2 d2 | "2nd Break""D"f4 a3f | "G"g2 [B2D2G,2] g2 b2 | 
"D"fg ab ag fe | "A"fg ec AG E2 | "D"f4 a3f | "G"g2 [B2D2G,2] g2 b2 | "A"ag (3fgf ec Ac | 
df e"D"c d4 | "D"f4 a3f | "G"g2 [B2D2G,2] g2 b2 | "D"fg ab ag fe | "A"fg ec AF (3EFE | 
"D"DF Ad fa fa | "G"gd Bd ga bg | "A"a2 ab c'a bc' | d'a fa "D"d4 | "High Brk""D"e/f/a2b af de | 
"G"gd eg bc' d'b | "D"af ba fd ef | "A"gf ec (3BcB A2 | "D"e/f/a2b af de | "G"gd eg bc' d'b | 
"A"ab c'a bc' ab | d'b af "D"d4 | "D"e/f/a2b af de | "G"gd eg bc' d'b | "D"af ba fd ef | 
"A"gf ec (3BcB A2 | "D"dA de fa fa | "G"gd Bd ga bg | "A"a2 ab c'a bc' | d'a fa "D"d4 | 


